!!!COM: Bach, Johann Sebastian
!!!CDT: 1685/3//-1750/7/28/
!!!OTL@@DE: Helft mir Gott's Guete preisen
!!!AGN: 4-Part Chorale; Chorale Prelude
!!!SCT: BH 088
!!!SCT: BWV 28
**harm	**root	**kern	**kern	**kern	**kern
!	!	!bass	!tenor	!alto	!soprno
*	*Iorgan	*Iorgan	*Iorgan	*Iorgan	*Iorgan
*	*	*clefF4	*clefF4	*clefG2	*clefG2
*M4/4	*M4/4	*M4/4	*M4/4	*M4/4	*M4/4
*met(c)	*met(c)	*met(c)	*met(c)	*met(c)	*met(c)
*MM60	*MM60	*MM60	*MM60	*MM60	*MM60
*k[f#c#g#]	*k[f#c#g#]	*k[f#c#g#]	*k[f#c#g#]	*k[f#c#g#]	*k[f#c#g#]
*f#:	*f#:	*f#:	*f#:	*f#:	*f#:
*>[A,A,B]	*>[A,A,B]	*>[A,A,B]	*>[A,A,B]	*>[A,A,B]	*>[A,A,B]
*>A	*>A	*>A	*>A	*>A	*>A
i	4AA	4FF#	4A	4c#	4f#
=1	=1	=1	=1	=1	=1
i	4AA	4F#	4A	4c#	4f#
Vb	4EE	4E#	4G#	4c#	4g#
i	4AA	4F#	4F#	4c#	4a
Vb/-VII	4DD	4D#	4F#	4B	4b
=2	=2	=2	=2	=2	=2
I/-VII	4.GG	2E	8E	4B	4.g#
.	.	.	8D#	.	.
.	.	.	8E	8e	.
viiob/-VII	8FF#	.	8F#	8d#	8a
I/-VII;	4GG;	4EE;	4G#;	4e;	4b;
Vb	4EE	4E#	4G#	4c#	4cc#
=3	=3	=3	=3	=3	=3
i	4AA	8F#	8F#	4c#	4a
.	.	8E	8G#	.	.
VI	4FF	8D	4A	4f#	4f#
.	.	8C#	.	.	.
ii7b	4BB	4BB	4d	4f#	4g#
V	4EE	4C#	8c#	4e#	4g#
.	.	.	8B	.	.
=4	=4	=4	=4	=4	=4
i;	2.AA;	2.FF#;	2.A;	2.c#;	2.f#;
=:|!	=:|!	=:|!	=:|!	=:|!	=:|!
*>B	*>B	*>B	*>B	*>B	*>B
i	4AA	4FF#	4A	4f#	4cc#
=5	=5	=5	=5	=5	=5
viiob	4GG#	4GG#	4B	8f#	4b
.	.	.	.	8e#	.
ib	4AA	4AA	4c#	4f#	4a
ii7b	8BB	8BB	8d	8f#	4g#
V	8EE	8C#	8c#	8e#	.
ivb	4DD	4D	8c#	8f#	4f#
.	.	.	8B	8F#	.
=6	=6	=6	=6	=6	=6
V;	2.EE;	2.C#;	2.E#;	2.c#;	2.g#;
V	4EE	4C#	4c#	4e#	4g#
!!linebreak: 2
=7	=7	=7	=7	=7	=7
i	4AA	4F#	4c#	4f#	4a
Vb/III	4GG	4G#	4B	4e	4b
III	4CC	8A	8A	4e	4cc#
.	.	8G#	8B	.	.
i	4AA	8F#	4c#	4f#	4a
.	.	8E	.	.	.
=8	=8	=8	=8	=8	=8
Vb/-VII	4DD	8D#	4F#	4f#	4.b
.	.	8C#	.	.	.
V/-VII	4DD	4BB	4B	8e	.
.	.	.	.	8d#	8a
I/-VII;	4GG;	4E;	4B;	4e;	4g#;
V7d/III	4GG	4D	4B	4e	4g#
=9	=9	=9	=9	=9	=9
IIIb	4CC	4C#	4E	4e	4a
iv	4DD	4BB	8F#	4d	4b
.	.	.	8G#	.	.
III	4CC	4AA	8A	4c#	4cc#
.	.	.	8B	.	.
i	4AA	8GG#	4c#	4f#	4a
.	.	8FF#	.	.	.
=10	=10	=10	=10	=10	=10
Ib/-VII	4GG	8GG#	4B	8f#	4.b
.	.	8AA	.	8e	.
V/-VII	4DD	4BB	4F#	8d#	.
.	.	.	.	8c#	8a
I/-VII;	4GG;	4EE;	4G#;	4B;	4g#;
Vb	4EE	4E#	4G#	4c#	4cc#
=11	=11	=11	=11	=11	=11
i	8AA	8F#	8F#	4c#	8a
vb	8EE	8E	8G#	.	8g#
VI	4FF	8D	4A	4f#	4f#
.	.	8C#	.	.	.
ii7b	4BB	4BB	4d	4f#	4g#
V	4EE	4C#	8c#	4e#	4g#
.	.	.	8B	.	.
=12	=12	=12	=12	=12	=12
I;	2.AA;	2.FF#;	2.A#;	2.c#;	2.f#;
==	==	==	==	==	==
*-	*-	*-	*-	*-	*-
!!!ONB: m.7, b.3: bass note 8C should perhaps be 8c
!!chor2scor: -l 2 -s 0.6 -o %b.pmx
!!!YEC: Copyright 1994, David Huron
!!!YEC: Changes/Additions 2001 by Craig Stuart Sapp
!!!YEN: United States of America
!!!SMA: 371 Bach Chorales, edited by Ludwig Erk, C.F. Peters
!!!PDT: 1850, 1865
!!!ONB: Harmony and Root analysis done manually
